src/images/app-icons/light-theme/ZDevOpsBuild.svg

<svg xmlns="http://www.w3.org/2000/svg" viewBox="0 0 32 32"><defs><linearGradient id="ZDevOpsBuild_svg__a" x1="878.479" y1="151.474" x2="891.479" y2="151.474" gradientTransform="matrix(1.03 0 0 .848 -899.547 -103.721)" gradientUnits="userSpaceOnUse"><stop offset=".1" stop-opacity="0"/><stop offset=".9"/></linearGradient><linearGradient id="ZDevOpsBuild_svg__c" x1="-5737" y1="5769" x2="-5769" y2="5801" gradientTransform="matrix(1 0 0 -1 5769 5801)" gradientUnits="userSpaceOnUse"><stop offset=".1" stop-color="#a56eff"/><stop offset=".9" stop-color="#0f62fe"/></linearGradient><mask id="ZDevOpsBuild_svg__b" x="0" y="0" width="32" height="32" maskUnits="userSpaceOnUse"><path d="M15.486 30.864L3.5 23.876a1 1 0 01-.5-.864V9h2v13.438l11.494 6.7zM12.992 13.017h-2L11 4.337a1 1 0 01.5-.866l4.02-2.313a1 1 0 011 0L28.5 8.136A1 1 0 0129 9v4h-2V9.575L16.017 3.18 13 4.917z" fill="#fff"/><path fill="#fff" d="M7 6h2v10H7z"/><path transform="rotate(30 12.138 24.76)" fill="url(#ZDevOpsBuild_svg__a)" d="M5.442 20.519h13.392v8.482H5.442z"/></mask></defs><g data-name="Layer 2"><g data-name="Light theme icons"><g mask="url(#ZDevOpsBuild_svg__b)"><path transform="rotate(90 16 16)" fill="url(#ZDevOpsBuild_svg__c)" d="M0 0h32v32H0z"/></g><path d="M28 22h-4v-4a2 2 0 00-2-2h-4a2 2 0 00-2 2v4a2 2 0 002 2h4v4a2 2 0 002 2h4a2 2 0 002-2v-4a2 2 0 00-2-2zm-10 0v-4h4v4zm10 6h-4v-4h4z" fill="#001d6c"/></g></g></svg>

<svg xmlns="http://www.w3.org/2000/svg" xmlns:xlink="http://www.w3.org/1999/xlink" viewBox="0 0 32 32"><defs><style>.cls-1{fill:#fff;}.cls-2{fill:url(#linear-gradient);}.cls-3{mask:url(#mask);}.cls-4{fill:url(#linear-gradient-2);}.cls-5{fill:#001d6c;}</style><linearGradient id="linear-gradient" x1="878.479" y1="151.474" x2="891.479" y2="151.474" gradientTransform="translate(-899.547 -103.721) scale(1.03 0.848)" gradientUnits="userSpaceOnUse"><stop offset="0.1" stop-opacity="0"/><stop offset="0.9"/></linearGradient><mask id="mask" x="0" y="0" width="32" height="32" maskUnits="userSpaceOnUse"><path class="cls-1" d="M15.486,30.864,3.5,23.876a1,1,0,0,1-.5-.864V9H5V22.438l11.494,6.7Z"/><path class="cls-1" d="M12.992,13.017l-2,0L11,4.337a1,1,0,0,1,.5-.866l4.02-2.313a1,1,0,0,1,1,0L28.5,8.136A1,1,0,0,1,29,9v4H27V9.575L16.017,3.18,13,4.917Z"/><rect class="cls-1" x="7" y="6" width="2" height="10"/><rect class="cls-2" x="5.442" y="20.519" width="13.392" height="8.482" transform="translate(14.006 -2.752) rotate(30)"/></mask><linearGradient id="linear-gradient-2" x1="-5737" y1="5769" x2="-5769" y2="5801" gradientTransform="matrix(1, 0, 0, -1, 5769, 5801)" gradientUnits="userSpaceOnUse"><stop offset="0.1" stop-color="#a56eff"/><stop offset="0.9" stop-color="#0f62fe"/></linearGradient></defs><g id="Layer_2" data-name="Layer 2"><g id="Light_theme_icons" data-name="Light theme icons"><g class="cls-3"><rect class="cls-4" width="32" height="32" transform="translate(32 0) rotate(90)"/></g><path class="cls-5" d="M28,22H24V18a2,2,0,0,0-2-2H18a2,2,0,0,0-2,2v4a2,2,0,0,0,2,2h4v4a2,2,0,0,0,2,2h4a2,2,0,0,0,2-2V24A2,2,0,0,0,28,22ZM18,22V18h4v4Zm10,6H24V24h4Z"/></g></g></svg>
